X: 12507
T: Farewell To Glasgow
R: waltz
M: 3/4
K: Eminor
d2|e4 B2|d4 ed|B3 A G2|d4 ed|B3 A G2|E4 D2|E6|E4
D2|E3 E E2|G3 A B2|d3 e d2|B4 d2|e4 f2|e4 d2|B6|B4
D2|E3 E E2|G3 A B2|d3 e d2|B4 d2|e4 f2|e4 d2|B6|B4
d2|e4 B2|d4 ed|B3 A G2|d4 ed|B3 A G2|E4 D2|E6|E4||

